assets/efishery/keramba-jaring-apung-fill.svg

<svg width="24" height="25" viewBox="0 0 24 25" fill="none" xmlns="http://www.w3.org/2000/svg">
<path fill-rule="evenodd" clip-rule="evenodd" d="M11.0459 4.30229C11.1649 4.26831 11.2904 4.26427 11.4113 4.29056L22.9113 6.79056C23.2504 6.86428 23.4947 7.16104 23.5018 7.50802C23.5089 7.85499 23.2771 8.16155 22.9413 8.24915L22.752 8.29854V9.01692C23.1817 9.37242 23.4695 9.88586 23.4994 10.4801C23.5484 11.4494 22.893 12.2671 21.9972 12.5522L12.2194 15.6633C11.7791 15.8034 11.303 15.8099 10.8589 15.6824L1.57001 13.0158C0.678732 12.7599 0.0019531 11.9799 0.0019531 11.0234C0.0019531 10.3929 0.296108 9.83899 0.751953 9.46145V8.7944L0.578238 8.75304C0.246447 8.67404 0.00973693 8.38113 0.00213919 8.04014C-0.00545849 7.69916 0.217969 7.39599 0.545912 7.30229L11.0459 4.30229ZM21.752 10.1373V11.0207C21.6931 11.0619 21.6234 11.097 21.5424 11.1228L18.752 12.0106V9.398L21.4748 10.0168C21.5845 10.0418 21.6768 10.0842 21.752 10.1373ZM15.752 12.9652L17.752 12.3288V9.60289L15.752 10.1246V12.9652ZM14.752 10.3855V13.2834L11.7646 14.2339L11.752 14.2378V11.1681L14.752 10.3855ZM7.75195 13.2299L10.752 14.0911V11.1754L7.75195 10.4611V13.2299ZM4.75195 12.3687L6.75195 12.9428V10.223L4.75195 9.74678V12.3687ZM1.98391 11.574C1.89343 11.548 1.81628 11.5104 1.75195 11.4651V10.5818C1.81628 10.5365 1.89343 10.4989 1.98391 10.4729L3.75195 9.9653V12.0816L1.98391 11.574ZM19.5265 7.58977L18.6128 7.82812L17.752 7.63247V7.204L19.5265 7.58977ZM16.752 6.98661L14.752 6.55182V6.95065L16.752 7.4052V6.98661ZM13.752 6.33443V6.72338L12.0294 6.3319C11.9378 6.31107 11.8451 6.29581 11.752 6.28612V5.89965L13.752 6.33443ZM7.75195 6.80345L5.75195 7.37488V7.83055L7.75195 7.25639V6.80345ZM3.71291 7.95746L4.75195 7.66059V8.11763L4.58588 8.16531L3.71291 7.95746ZM8.75195 6.96931V6.51773L10.752 5.94631V6.39515L8.75195 6.96931ZM11.2728 7.80621L7.55743 8.87282L11.2437 9.7505L15.4616 8.65018L11.697 7.7946C11.557 7.76278 11.4094 7.767 11.2728 7.80621Z" fill="#1D1D1D"/>
<path d="M18.2112 14.5042C18.1624 14.4097 18.105 14.3159 18.0373 14.2237L15.7286 14.9866C15.9725 15.6487 16.0013 16.3888 16.0013 17.0227C16.0013 17.1608 15.8894 17.2727 15.7513 17.2727C15.6133 17.2727 15.5013 17.1608 15.5013 17.0227C15.5013 16.3663 15.4638 15.7034 15.2536 15.1435L11.4715 16.3931L8.54605 15.521C8.06958 16.0436 8.00134 16.781 8.00134 17.5227C8.00134 17.6608 7.88941 17.7727 7.75134 17.7727C7.61327 17.7727 7.50134 17.6608 7.50134 17.5227C7.50134 16.8481 7.54928 16.0197 8.02695 15.3663L5.47419 14.6052C5.06259 15.1212 5.00134 15.8201 5.00134 16.5227C5.00134 16.6608 4.88941 16.7727 4.75134 16.7727C4.61327 16.7727 4.50134 16.6608 4.50134 16.5227C4.50134 15.8779 4.54514 15.0925 4.96617 14.4538L2.87423 13.8301C1.74489 13.4935 0.490717 14.0718 0.108524 15.2143C-0.280853 16.3783 0.417705 17.5669 1.56241 17.9082L10.851 20.6772C11.3 20.8111 11.7818 20.8041 12.2267 20.6571L22.0041 17.4266C23.1397 17.0514 23.7986 15.8407 23.3718 14.6895C22.9535 13.5613 21.6834 13.019 20.5645 13.3887L18.5316 14.0604C18.5768 14.1307 18.618 14.2021 18.6555 14.2747C18.9564 14.8573 19.0013 15.4792 19.0013 16.0227C19.0013 16.1608 18.8894 16.2727 18.7513 16.2727C18.6133 16.2727 18.5013 16.1608 18.5013 16.0227C18.5013 15.4996 18.4556 14.9771 18.2112 14.5042Z" fill="#1D1D1D"/>
</svg>

<svg viewBox="0 0 24 25" xmlns="http://www.w3.org/2000/svg">
  <path fill-rule="evenodd" clip-rule="evenodd" d="M11.046 4.302a.75.75 0 0 1 .365-.011l11.5 2.5a.75.75 0 0 1 .03 1.458l-.189.05v.718c.43.355.718.869.747 1.463.05.97-.606 1.787-1.502 2.072l-9.778 3.111c-.44.14-.916.147-1.36.02L1.57 13.015C.679 12.76.002 11.98.002 11.023c0-.63.294-1.184.75-1.562v-.667l-.174-.041a.75.75 0 0 1-.032-1.45l10.5-3zm10.706 5.835v.884a.773.773 0 0 1-.21.102l-2.79.888V9.398l2.723.619c.11.025.202.067.277.12zm-6 2.828 2-.636V9.603l-2 .522v2.84zm-1-2.58v2.898l-2.987.95-.013.005v-3.07l3-.782zm-7 2.845 3 .861v-2.916l-3-.714v2.769zm-3-.861 2 .574v-2.72l-2-.476v2.622zm-2.768-.795a.77.77 0 0 1-.232-.109v-.883a.77.77 0 0 1 .232-.11l1.768-.507v2.117l-1.768-.508zM19.526 7.59l-.913.238-.861-.196v-.428l1.774.386zm-2.774-.603-2-.435v.399l2 .454v-.418zm-3-.653v.39l-1.723-.392a2.347 2.347 0 0 0-.277-.046V5.9l2 .434zm-6 .47-2 .57v.457l2-.575v-.453zm-4.04 1.153 1.04-.296v.457l-.166.047-.873-.208zm5.04-.988v-.451l2-.572v.45l-2 .573zm2.52.837L7.558 8.873l3.687.878 4.218-1.1-3.765-.856a.858.858 0 0 0-.424.011z"/>
  <path d="M18.211 14.504a2.104 2.104 0 0 0-.174-.28l-2.308.763c.244.662.272 1.402.272 2.036a.25.25 0 1 1-.5 0c0-.657-.037-1.32-.247-1.88l-3.782 1.25-2.926-.872c-.476.523-.545 1.26-.545 2.002a.25.25 0 1 1-.5 0c0-.675.048-1.503.526-2.157l-2.553-.76c-.411.515-.473 1.214-.473 1.917a.25.25 0 1 1-.5 0c0-.645.044-1.43.465-2.07l-2.092-.623c-1.13-.337-2.383.242-2.765 1.384-.39 1.164.309 2.353 1.453 2.694l9.289 2.77c.449.133.93.126 1.376-.02l9.777-3.231c1.136-.376 1.795-1.586 1.368-2.737-.419-1.129-1.689-1.671-2.808-1.301l-2.032.671c.045.07.086.142.123.215.301.582.346 1.204.346 1.748a.25.25 0 1 1-.5 0c0-.523-.045-1.046-.29-1.519z"/>
</svg>
